assets/brands/tailgrids.svg

<svg width="161" height="40" viewBox="0 0 161 40" fill="none" xmlns="http://www.w3.org/2000/svg">
<g clip-path="url(#clip0_2011_604)">
<mask id="mask0_2011_604" style="mask-type:luminance" maskUnits="userSpaceOnUse" x="0" y="0" width="41" height="40">
<path d="M40.5 0H0.5V40H40.5V0Z" fill="white"/>
</mask>
<g mask="url(#mask0_2011_604)">
<path opacity="0.72" d="M40.4359 18.3522C40.4163 18.1526 40.3239 17.9673 40.1764 17.8316C40.0288 17.6958 39.8364 17.6191 39.6359 17.6162H19.7C19.1586 17.6294 18.6301 17.784 18.167 18.0647C17.7039 18.3454 17.3222 18.7424 17.06 19.2162C16.8172 19.6399 16.6895 20.1198 16.6895 20.6082C16.6895 21.0965 16.8172 21.5764 17.06 22.0002C17.1293 22.1334 17.2321 22.2463 17.3584 22.3277C17.4847 22.409 17.6299 22.4561 17.7799 22.4642H39.684C39.8845 22.4612 40.0769 22.3845 40.2244 22.2488C40.372 22.113 40.4643 21.9277 40.484 21.7282C40.484 21.1042 40.484 20.5762 40.484 20.1282C40.484 19.6802 40.4839 18.9602 40.4359 18.3522Z" fill="#3758F9"/>
<path d="M40.4198 18.3522C40.404 18.154 40.315 17.9689 40.17 17.8328C40.0251 17.6967 39.8346 17.6195 39.6358 17.6162H36.4358C36.3236 17.6174 36.2128 17.6423 36.1108 17.6892C36.0088 17.736 35.9179 17.8038 35.8438 17.8882C35.7693 17.9693 35.7134 18.0657 35.6802 18.1708C35.647 18.2759 35.6374 18.3869 35.6519 18.4962C35.6519 19.0082 35.6519 19.5202 35.6519 20.0962C35.6478 22.6493 35.0008 25.1603 33.7704 27.3973C32.54 29.6344 30.7658 31.5255 28.6118 32.8962C28.3878 33.0402 28.1799 33.2162 27.9399 33.3442C26.7658 34.0128 25.5062 34.5188 24.1958 34.8482L26.2919 38.5762C26.363 38.6994 26.4658 38.8015 26.5896 38.8718C26.7133 38.9421 26.8535 38.9781 26.9958 38.9762C27.0804 38.9915 27.1672 38.9915 27.2519 38.9762L27.7638 38.7682L28.2278 38.5762C28.9356 38.2822 29.6249 37.9456 30.2919 37.5682C33.4114 35.8109 36.0034 33.2503 37.7985 30.1524C39.5937 27.0546 40.5265 23.5325 40.4999 19.9522C40.4999 19.3602 40.4678 18.8962 40.4198 18.3522Z" fill="#3758F9"/>
<path d="M29.0946 33.5387C28.9871 33.3562 28.8162 33.2195 28.6146 33.1547H28.3905C28.2516 33.1558 28.1148 33.1886 27.9905 33.2507C25.709 34.5489 23.1276 35.2274 20.5026 35.2187C16.4739 35.2102 12.6127 33.6061 9.76396 30.7574C6.91524 27.9086 5.31109 24.0474 5.30264 20.0187C5.31109 15.99 6.91524 12.1287 9.76396 9.27999C12.6127 6.43126 16.4739 4.82713 20.5026 4.81867C23.1264 4.81951 25.7054 5.49735 27.9905 6.78666C28.11 6.86248 28.2491 6.90144 28.3905 6.89866H28.5665C28.6762 6.87445 28.7798 6.82785 28.8706 6.76177C28.9615 6.6957 29.0378 6.61157 29.0946 6.51467L30.6946 3.73067C30.8004 3.54551 30.8295 3.3263 30.7757 3.11997C30.7219 2.91363 30.5893 2.73657 30.4065 2.62667C27.3949 0.924775 23.9939 0.0317974 20.5347 0.0346749C15.2329 0.0431374 10.1508 2.15299 6.40186 5.90189C2.65296 9.65078 0.54313 14.7329 0.534668 20.0347C0.54313 25.3364 2.65296 30.4186 6.40186 34.1675C10.1508 37.9164 15.2329 40.0262 20.5347 40.0347C23.9939 40.0375 27.3949 39.1446 30.4065 37.4427C30.4981 37.3913 30.5784 37.3221 30.6427 37.2391C30.707 37.1561 30.7539 37.0611 30.7808 36.9596C30.8076 36.8581 30.8139 36.7523 30.7991 36.6484C30.7843 36.5445 30.7488 36.4446 30.6946 36.3547L29.0946 33.5387Z" fill="#3758F9"/>
<path opacity="0.56" d="M22.7878 22.3998H17.7319C17.5885 22.3896 17.4496 22.345 17.3271 22.2698C17.2045 22.1946 17.1019 22.091 17.0278 21.9678L26.3239 38.4318C26.3951 38.5551 26.4978 38.6571 26.6216 38.7275C26.7453 38.7978 26.8855 38.8338 27.0278 38.8318C27.1179 38.847 27.2099 38.847 27.2999 38.8318C28.3571 38.4512 29.3796 37.9801 30.356 37.4238C30.4475 37.3724 30.5276 37.3032 30.5919 37.2202C30.6562 37.1373 30.7031 37.0422 30.73 36.9407C30.7568 36.8393 30.7631 36.7334 30.7483 36.6295C30.7335 36.5256 30.698 36.4257 30.6438 36.3358L22.7878 22.3998Z" fill="#3758F9"/>
</g>
<path d="M63.0224 13.6567V30.6077H60.0416V13.6567H55.5V10.855H67.5512V13.6567H63.0224Z" fill="#111928"/>
<path d="M77.7473 18.1472H80.6386V30.6078H77.7473V29.3029C76.5618 30.4116 75.2868 30.966 73.9222 30.966C72.1994 30.966 70.7751 30.3434 69.6493 29.0982C68.532 27.8274 67.9733 26.241 67.9733 24.3391C67.9733 22.4713 68.532 20.9148 69.6493 19.6696C70.7665 18.4244 72.1652 17.8018 73.8454 17.8018C75.2953 17.8018 76.5959 18.3988 77.7473 19.5929V18.1472ZM70.9158 24.3391C70.9158 25.5331 71.2356 26.5054 71.8753 27.256C72.532 28.015 73.3593 28.3946 74.3571 28.3946C75.4232 28.3946 76.2846 28.0278 76.9414 27.2943C77.5981 26.5353 77.9264 25.5715 77.9264 24.4031C77.9264 23.2346 77.5981 22.2709 76.9414 21.5118C76.2846 20.7698 75.4318 20.3988 74.3827 20.3988C73.3934 20.3988 72.5661 20.7741 71.9009 21.5246C71.2441 22.2837 70.9158 23.2218 70.9158 24.3391Z" fill="#111928"/>
<path d="M87.1503 18.147V30.6076H84.2719V18.147H87.1503ZM83.8369 12.9658C83.8369 12.4626 84.0203 12.0276 84.387 11.6609C84.7537 11.2941 85.193 11.1108 85.7047 11.1108C86.2249 11.1108 86.6684 11.2941 87.0352 11.6609C87.4019 12.0191 87.5853 12.4583 87.5853 12.9786C87.5853 13.4988 87.4019 13.9423 87.0352 14.3091C86.677 14.6758 86.2377 14.8592 85.7175 14.8592C85.1972 14.8592 84.7537 14.6758 84.387 14.3091C84.0203 13.9423 83.8369 13.4946 83.8369 12.9658Z" fill="#111928"/>
<path d="M93.6748 9V30.6077H90.7964V9H93.6748Z" fill="#111928"/>
<path d="M108.029 20.322H116.191V20.9744C116.191 22.4584 116.016 23.7719 115.666 24.9147C115.325 25.9723 114.749 26.9616 113.939 27.8827C112.106 29.9467 109.773 30.9787 106.941 30.9787C104.178 30.9787 101.811 29.9808 99.8412 27.9851C97.871 25.9808 96.8859 23.5757 96.8859 20.7697C96.8859 17.9041 97.8881 15.4733 99.8923 13.4776C101.897 11.4733 104.336 10.4712 107.21 10.4712C108.754 10.4712 110.195 10.7868 111.534 11.4179C112.813 12.049 114.071 13.0725 115.308 14.4883L113.184 16.5224C111.564 14.3646 109.59 13.2857 107.261 13.2857C105.172 13.2857 103.419 14.0064 102.003 15.4478C100.587 16.8635 99.8795 18.6375 99.8795 20.7697C99.8795 22.9701 100.668 24.7825 102.246 26.2068C103.722 27.5288 105.321 28.1898 107.044 28.1898C108.511 28.1898 109.828 27.6951 110.997 26.7058C112.165 25.7079 112.818 24.5139 112.954 23.1237H108.029V20.322Z" fill="#111928"/>
<path d="M119.402 18.1472H122.28V19.2602C122.809 18.7059 123.278 18.3263 123.688 18.1216C124.106 17.9084 124.6 17.8018 125.172 17.8018C125.931 17.8018 126.724 18.0491 127.551 18.5438L126.233 21.1792C125.688 20.7869 125.155 20.5907 124.634 20.5907C123.065 20.5907 122.28 21.7762 122.28 24.1472V30.6078H119.402V18.1472Z" fill="#111928"/>
<path d="M132.489 18.147V30.6076H129.611V18.147H132.489ZM129.176 12.9658C129.176 12.4626 129.359 12.0276 129.726 11.6609C130.093 11.2941 130.532 11.1108 131.044 11.1108C131.564 11.1108 132.007 11.2941 132.374 11.6609C132.741 12.0191 132.924 12.4583 132.924 12.9786C132.924 13.4988 132.741 13.9423 132.374 14.3091C132.016 14.6758 131.577 14.8592 131.057 14.8592C130.536 14.8592 130.093 14.6758 129.726 14.3091C129.359 13.9423 129.176 13.4946 129.176 12.9658Z" fill="#111928"/>
<path d="M145.321 9H148.212V30.6077H145.321V29.3028C144.187 30.4115 142.903 30.9659 141.47 30.9659C139.764 30.9659 138.349 30.3433 137.223 29.0981C136.106 27.8273 135.547 26.2409 135.547 24.339C135.547 22.4797 136.106 20.9275 137.223 19.6823C138.332 18.4286 139.726 17.8017 141.406 17.8017C142.865 17.8017 144.17 18.3987 145.321 19.5928V9ZM138.489 24.339C138.489 25.533 138.809 26.5053 139.449 27.2559C140.106 28.0149 140.933 28.3945 141.931 28.3945C142.997 28.3945 143.858 28.0277 144.515 27.2942C145.172 26.5352 145.5 25.5714 145.5 24.403C145.5 23.2345 145.172 22.2708 144.515 21.5117C143.858 20.7697 143.005 20.3987 141.956 20.3987C140.967 20.3987 140.14 20.774 139.474 21.5245C138.818 22.2836 138.489 23.2217 138.489 24.339Z" fill="#111928"/>
<path d="M159.086 20.2709L156.707 21.5374C156.332 20.7698 155.867 20.386 155.312 20.386C155.048 20.386 154.822 20.4756 154.634 20.6547C154.447 20.8253 154.353 21.047 154.353 21.3199C154.353 21.7975 154.907 22.2709 156.016 22.74C157.543 23.3967 158.57 24.0022 159.099 24.5566C159.628 25.111 159.892 25.8572 159.892 26.7954C159.892 27.998 159.449 29.0044 158.562 29.8146C157.7 30.5822 156.66 30.966 155.44 30.966C153.351 30.966 151.871 29.9468 151.001 27.9084L153.457 26.7698C153.799 27.3668 154.059 27.7464 154.238 27.9084C154.587 28.2325 155.005 28.3946 155.491 28.3946C156.464 28.3946 156.95 27.9511 156.95 27.0641C156.95 26.5523 156.575 26.0747 155.824 25.6312C155.534 25.4862 155.244 25.3455 154.954 25.2091C154.664 25.0726 154.37 24.9319 154.071 24.7869C153.236 24.3775 152.647 23.9681 152.306 23.5587C151.871 23.0385 151.654 22.369 151.654 21.5502C151.654 20.4671 152.025 19.5715 152.767 18.8636C153.526 18.1558 154.447 17.8018 155.53 17.8018C157.125 17.8018 158.31 18.6248 159.086 20.2709Z" fill="#111928"/>
</g>
<defs>
<clipPath id="clip0_2011_604">
<rect width="160" height="40" fill="white" transform="translate(0.5)"/>
</clipPath>
</defs>
</svg>

<svg xmlns="http://www.w3.org/2000/svg" width="161" height="40" fill="none"><g clip-path="url(#a)"><mask id="b" width="41" height="40" x="0" y="0" maskUnits="userSpaceOnUse" style="mask-type:luminance"><path fill="#fff" d="M40.5 0H.5v40h40V0Z"/></mask><g fill="#3758F9" mask="url(#b)"><path d="M40.436 18.352a.816.816 0 0 0-.8-.736H19.7a3.103 3.103 0 0 0-2.64 1.6 2.8 2.8 0 0 0 0 2.784.864.864 0 0 0 .72.464h21.904a.816.816 0 0 0 .8-.736v-1.6a24 24 0 0 0-.048-1.776Z" opacity=".72"/><path d="M40.42 18.352a.8.8 0 0 0-.784-.736h-3.2a.799.799 0 0 0-.592.272.753.753 0 0 0-.192.608v1.6a15.2 15.2 0 0 1-7.04 12.8c-.224.144-.432.32-.672.448a14.914 14.914 0 0 1-3.744 1.504l2.096 3.728a.8.8 0 0 0 .704.4.72.72 0 0 0 .256 0l.512-.208.464-.192c.708-.294 1.397-.63 2.064-1.008A20.048 20.048 0 0 0 40.5 19.952c0-.592-.032-1.056-.08-1.6Z"/><path d="M29.095 33.539a.864.864 0 0 0-.48-.384h-.224a.911.911 0 0 0-.4.096 15.04 15.04 0 0 1-7.488 1.968 15.232 15.232 0 0 1-15.2-15.2 15.232 15.232 0 0 1 15.2-15.2c2.623 0 5.202.678 7.488 1.968a.72.72 0 0 0 .4.112h.176a.816.816 0 0 0 .528-.384l1.6-2.784a.816.816 0 0 0-.288-1.104A20.031 20.031 0 0 0 20.535.035a20.032 20.032 0 0 0-20 20 20.032 20.032 0 0 0 20 20c3.459.003 6.86-.89 9.872-2.592a.784.784 0 0 0 .288-1.088l-1.6-2.816Z"/><path d="M22.788 22.4h-5.056a.895.895 0 0 1-.704-.432l9.296 16.464a.8.8 0 0 0 .704.4c.09.015.182.015.272 0 1.057-.38 2.08-.852 3.056-1.408a.784.784 0 0 0 .288-1.088L22.788 22.4Z" opacity=".56"/></g><path fill="#111928" d="M63.022 13.657v16.95h-2.98v-16.95H55.5v-2.802h12.051v2.802h-4.529Zm14.725 4.49h2.892v12.46h-2.892v-1.304c-1.185 1.109-2.46 1.663-3.825 1.663-1.723 0-3.147-.623-4.273-1.868-1.117-1.27-1.676-2.857-1.676-4.759 0-1.868.559-3.424 1.676-4.67 1.117-1.245 2.516-1.867 4.196-1.867 1.45 0 2.75.597 3.902 1.79v-1.445Zm-6.831 6.192c0 1.194.32 2.166.96 2.917.656.759 1.483 1.139 2.481 1.139 1.066 0 1.928-.367 2.584-1.1.657-.76.985-1.724.985-2.892s-.328-2.132-.985-2.891c-.656-.742-1.51-1.113-2.558-1.113-.99 0-1.817.375-2.482 1.126-.657.759-.985 1.697-.985 2.814Zm16.234-6.192v12.46h-2.878v-12.46h2.878Zm-3.313-5.181c0-.503.183-.938.55-1.305.367-.367.806-.55 1.318-.55.52 0 .963.183 1.33.55.367.358.55.797.55 1.318 0 .52-.183.963-.55 1.33a1.77 1.77 0 0 1-1.317.55c-.52 0-.964-.183-1.331-.55a1.828 1.828 0 0 1-.55-1.343ZM93.675 9v21.608h-2.879V9h2.879Zm14.354 11.322h8.162v.652c0 1.484-.175 2.798-.525 3.94-.341 1.058-.917 2.048-1.727 2.969-1.833 2.064-4.166 3.096-6.998 3.096-2.763 0-5.13-.998-7.1-2.994-1.97-2.004-2.955-4.41-2.955-7.215 0-2.866 1.002-5.297 3.006-7.292 2.005-2.005 4.444-3.007 7.318-3.007 1.544 0 2.985.316 4.324.947 1.279.631 2.537 1.655 3.774 3.07l-2.124 2.034c-1.62-2.157-3.594-3.236-5.923-3.236-2.089 0-3.842.72-5.258 2.162-1.416 1.415-2.124 3.19-2.124 5.322 0 2.2.789 4.012 2.367 5.437 1.476 1.322 3.075 1.983 4.798 1.983 1.467 0 2.784-.495 3.953-1.484 1.168-.998 1.821-2.192 1.957-3.582h-4.925v-2.802Zm11.373-2.175h2.878v1.113c.529-.554.998-.934 1.408-1.138.418-.214.912-.32 1.484-.32.759 0 1.552.247 2.379.742l-1.318 2.635c-.545-.392-1.078-.588-1.599-.588-1.569 0-2.354 1.185-2.354 3.556v6.46h-2.878v-12.46Zm13.087 0v12.46h-2.878v-12.46h2.878Zm-3.313-5.181c0-.503.183-.938.55-1.305.367-.367.806-.55 1.318-.55.52 0 .963.183 1.33.55.367.358.55.797.55 1.318 0 .52-.183.963-.55 1.33a1.77 1.77 0 0 1-1.317.55c-.521 0-.964-.183-1.331-.55a1.826 1.826 0 0 1-.55-1.343ZM145.321 9h2.891v21.608h-2.891v-1.305c-1.134 1.108-2.418 1.663-3.851 1.663-1.706 0-3.121-.623-4.247-1.868-1.117-1.27-1.676-2.857-1.676-4.759 0-1.86.559-3.412 1.676-4.657 1.109-1.253 2.503-1.88 4.183-1.88 1.459 0 2.764.597 3.915 1.79V9Zm-6.832 15.339c0 1.194.32 2.166.96 2.917.657.759 1.484 1.139 2.482 1.139 1.066 0 1.927-.367 2.584-1.1.657-.76.985-1.724.985-2.892s-.328-2.132-.985-2.891c-.657-.742-1.51-1.113-2.559-1.113-.989 0-1.816.375-2.482 1.125-.656.76-.985 1.698-.985 2.815Zm20.597-4.069-2.379 1.267c-.375-.767-.84-1.151-1.395-1.151-.264 0-.49.09-.678.269a.859.859 0 0 0-.281.665c0 .477.554.95 1.663 1.42 1.527.657 2.554 1.262 3.083 1.817.529.554.793 1.3.793 2.238 0 1.203-.443 2.21-1.33 3.02-.862.767-1.902 1.151-3.122 1.151-2.089 0-3.569-1.02-4.439-3.058l2.456-1.138c.342.597.602.976.781 1.138.349.325.767.487 1.253.487.973 0 1.459-.444 1.459-1.33 0-.513-.375-.99-1.126-1.434a43.3 43.3 0 0 0-.87-.422 84.33 84.33 0 0 1-.883-.422c-.835-.41-1.424-.819-1.765-1.228-.435-.52-.652-1.19-.652-2.009 0-1.083.371-1.979 1.113-2.686.759-.708 1.68-1.062 2.763-1.062 1.595 0 2.78.823 3.556 2.469Z"/></g><defs><clipPath id="a"><path fill="#fff" d="M.5 0h160v40H.5z"/></clipPath></defs></svg>
